!!!!SEGMENT: pl-wtm--r-257-m_moniuszko-stanislaw--przestroga-matki.krn
!!!cenid: 18xx:1662
!!!COM: Moniuszko, Stanisław
!!!COM-rismID:
!!!CDT: 1819/05/05-1872/06/04
!!!CNT: Polish
!!!OTL: Przestroga matki
!!!PDT:
!!!AGN: Secular
!!!SMS-siglum: PL-Wtm
!!!SMS-shelfmark: R 257/M
!!!SMS-shelfwork: W
!!!SMS-variant:
!!!SMS-altvar:
!!!NIFC-rismSourceID: 1001063797
!!!NIFC-islandoraID:
!!!URL-pdf-islandora:
!!!URL-scan:
!!!ONB-nifc:
!!!AIN: 1 forte 1 vox
!!!key:
**kern	**kern	**dynam	**kern
*part2	*part2	*part2	*part1
*staff3	*staff2	*	*staff1
*Iforte	*Iempty	*	*Ivox
*I"[Fortepian]	*	*	*I"[Głos]
*I'pf	*	*	*I'V
*clefF4	*clefG2	*	*clefG2
*k[b-e-a-d-]	*k[b-e-a-d-]	*	*k[b-e-a-d-]
*A-:	*A-:	*	*A-:
*	*	*	*omet3/8
*M2/4	*M2/4	*	*M2/4
=1	=1	=1	=1
!	!	!	!LO:TX:t=P:problem=metrum 3/8
!	!	!	!LO:TX:a:i:u:t=Sz&colon; Konopackiego.
!	!	!	!LO:TX:a:i:t=Przestroga Matki
!	!	!	!LO:TX:t=P:problem=kreska taktowa
!	!	!	!LO:N:vis=1
8AA-/	8r	.	4.r
8r	8c/ 8e- 8a-	.	.
8AA-/	8r	.	.
!	!	!	!LO:TX:t=P:problem=kreska taktowa
!	!	!	!LO:N:vis=1
8r	8c/ 8e- 8a-	.	4.r
=2	=2	=2	=2-
8AA-/	8r	.	.
8r	8c/ 8e- 8a-	.	.
!	!	!	!LO:TX:t=P:problem=kreska taktowa
!	!	!	!LO:N:vis=1
8AA-/	8r	.	4.r
8r	8c/ 8e- 8a-	.	.
=3	=3	=3	=3-
8AA-/	8r	.	.
!	!	!	!LO:TX:t=P:problem=kreska taktowa
!	!	!	!LO:N:vis=1
8r	8c/ 8e- 8a-	.	4.ryy
8AA-/	8r	.	.
8r	8c/ 8e- 8a-	.	.
=4	=4	=4	=4
8AA-/	8r	.	16a-/
.	.	.	16g/
8r	8c/ 8e- 8a-	.	8a-/
!	!	!	!LO:TX:t=P:problem=kreska taktowa
8AA-/	8r	.	8e-/
8r	8d-/ 8f 8a-	.	16f/
.	.	.	16g/
=5	=5	=5	=5-
8AA-/	8r	.	8e-/
!	!	!	!LO:TX:t=P:problem=kreska taktowa
8r	8c/ 8e- 8a-	.	8a-/
8AA-/	8r	.	16b-\
.	.	.	16cc\
8r	8B-/ 8e- 8g	.	8dd-\
=6	=6	=6	=6-
.	.	.	16qqee-/LL
.	.	.	16qqdd-/JJ
8AA-/	8r	.	16cc\LL
!	!	!	!LO:TX:t=P:problem=kreska taktowa
.	.	.	16b-\JJ
!!LO:LB:g=original
=-	=-	=-	=-
8r	8c/ 8e- 8a-	.	16cc\
.	.	.	16dd-\
8AA-/	8r	.	8.ee-\
8r	8c/ 8e- 8a-	.	.
!	!	!	!LO:TX:t=P:problem=kreska taktowa
.	.	.	16cc\
=7	=7	=7	=7
.	.	.	8qb-/
!LO:TX:t=P:problem=8\right	!	!	!
8AA-\ 8A-	8r	.	16a-/
.	.	.	16g/
8r	8c/ 8e- 8a-	.	8a-/
!	!	!	!LO:TX:t=P:problem=kreska taktowa
8AA-\ 8A-	8r	.	8e-/
8r	8d-/ 8f 8a-	.	16f/
.	.	.	16g/
=8	=8	=8	=8-
8AA-\ 8E- 8A-	8r	.	8e-/
!	!	!	!LO:TX:t=P:problem=kreska taktowa
8r	8c/ 8e- 8a-	.	8a-/
8AA-\ 8E- 8G	8r	.	16b-\
.	.	.	16cc\
8r	8d-/ 8e- 8b-	.	8dd-\
=9	=9	=9	=9-
8AA-\ 8E- 8A-	8r	.	16cc\LL
!	!	!	!LO:TX:t=P:problem=kreska taktowa
.	.	.	16b-\JJ
8r	8c/ 8e- 8a-	.	16cc\
.	.	.	16dd-\
8GG\ 8G	8r	.	8.ee-\
8r	8c/ 8e- 8cc	.	.
!	!	!	!LO:TX:t=P:problem=kreska taktowa
.	.	.	16ee-\
!!LO:LB:g=original
=10	=10	=10	=10
.	.	.	8qee-/
8GG\ 8G	8r	.	16dd-\
!	!	!	!LO:N:acc=#
.	.	.	16ccn\
8r	8dn/ 8f 8bn	.	(8.dd-\
8C/	8r	.	.
!	!	!	!LO:TX:t=P:problem=kreska taktowa
.	.	.	16g/)
.	.	.	8qdd-/
8r	8c/ 8en 8g 8b-X	.	16cc\
.	.	.	16bn\
=11	=11	=11	=11-
8FF/ 8F	8r	.	8.cc\
8r	8c/ 8e-X 8an	.	.
!	!	!	!LO:TX:t=P:problem=kreska taktowa
.	.	.	16f/
8BB-/	8r	.	16b-\
.	.	.	16an\
8r	8B-/ 8dn 8f 8a-X	.	8b-\
=12	=12	=12	=12-
!	!	!	!LO:TX:t=P:problem=kreska taktowa
8EE-/ 8E-	8r	.	8e-/
.	.	.	8qcc/
8r	8B-/ 8d-X 8g	.	16.b-\
.	.	.	32an\
4r	4r	.	8b-\
!	!	!	!LO:TX:t=P:problem=kreska taktowa
.	.	.	8ee-\
=13	=13	=13	=13
*	*^	*	*
!	!	!	!	!LO:N:vis=1
!	!	!	!	!LO:TX:t=P:problem=kreska taktowa
4r	4rff	4rAyy	.	4.r
*clefG2	*	*	*	*
*	*v	*v	*	*
*	*8va	*	*
*	*^	*	*
!	!	!	!LO:DY:t=pp.	!
.	8qfff/	.	pp	.
8e-'/L 8b- 8ee-	16.eee-/LL	8gg\L 8ddd-X	.	.
.	32dddn/JK	.	.	.
8e-'/J 8b- 8ee-	8eee-/J	8gg\J 8ddd-X	.	8r
*	*v	*v	*	*
*	*X8va	*	*
*	*^	*	*
*clefF4	*	*	*	*
=14	=14	=14	=14	=14-
.	8qff/	.	.	.
8E-'\L 8An 8e-	16.ee-/LL	8g-X\L 8cc	.	8r
.	32ddn/JK	.	.	.
!	!	!	!	!LO:TX:t=P:problem=kreska taktowa
8E-'\J 8A 8e-	8ee-/J	8g-\J 8cc	.	8r
=-	=-	=-	=-	=
*	*	*	*	*M2/8
.	8qf/	.	.	.
!	!	!	!	!LO:N:vis=1
8EE-'/L 8BB- 8E-	16.e-/LL	8G\L 8d-X	.	4r
.	32dn/JK	.	.	.
8EE-'/J 8BB- 8E-	8e-/J	8G\J 8d-X	.	.
*	*v	*v	*	*
=15	=15	=15	=15
*M3/8	*M3/8	*	*M3/8
!	!LO:TX:t=P:problem=diminuendolikeaccent	!	!
.	8qB-/	f	.
8AA-'\L 8C 8E-	16.A-^>/LL	.	16a-/LL
.	.	.	16g/JJ
.	32G/JJk	.	.
8AA-\ 8C 8E-	[4A-/	.	8a-/
8AA-\J 8C 8E-	.	p	8e-/
=16	=16	=16	=16
8AA-/L 8D- 8F	8A-/]	.	16f/LL
.	.	.	16g/JJ
8AA-/ 8C 8E- 8A-	8r	.	8e-/
8AA-/J 8C 8E- 8A-	8r	.	8a-/
=17	=17	=17	=17
*tremolo	*	*	*
.	8qff/	.	.
8AA-/ 8D- 8E- 8GL	16.ee-^\LL	.	16b-\
.	.	.	16cc\
.	32ddn\JJk	.	.
8AA-/ 8D- 8E- 8G	[4ee-\	.	8dd-\
8AA-/ 8D- 8E- 8GJ	.	.	16cc\
*Xtremolo	*	*	*
.	.	.	16b-\
=18	=18	=18	=18
*tremolo	*	*	*
!	!	!	!LO:N:vis=8
8AA-/ 8C 8E- 8A-L	8ee-\]	.	16cc\
!	!	!	!LO:N:vis=8
.	.	.	16dd-\
8AA-/ 8C 8E- 8A-	8r	.	8.ee-\
8AA-/ 8C 8E- 8A-J	8r	.	.
.	.	.	16cc\
*Xtremolo	*	*	*
!!LO:PB:g=original
==	==	==	==
*-	*-	*-	*-
!!!system-decoration: s1[(s2,s3)]
!!!RDF**kern: < = below
!!!RDF**kern: > = above
!!!ENC: Marta Chmielewska
!!!END: 2021-04-19
!!!ENC: Marcin Jachim
!!!END: 2021-03-29
